X:1
T: She's Ower Young to Marry Yet
C:
R:Strathspey
Q: 128
K:C
M:4/4
L:1/16
|:C2|E3G G3A c3d e3d|c3A G3A d3e d3D|E3G G3A c3d e3c|eg3 d3e cC3 C2C2|
E3G G3A c3d e3d|c3A G3A d3e d3D|E3G G3A c3d e3c|eg3 d3e cC3 C2g2|
e3c g3c e3f g3a|e3c g3c ed3 d3g|e3c g3c e3f g3a|e3c d3B cC3 C2g2|
e3c g3c e3f g3a|e3c g3c ed3 d3g|e3c g3c e3f g3a|e3c d3B cC3 C2:|
